assets/logos/ecv.svg

<svg width="43" height="43" viewBox="0 0 43 43" fill="none" xmlns="http://www.w3.org/2000/svg">
<mask id="mask0_43_288" style="mask-type:luminance" maskUnits="userSpaceOnUse" x="0" y="0" width="43" height="43">
<path d="M0 43H42.0986V0H0V43Z" fill="white"/>
</mask>
<g mask="url(#mask0_43_288)">
<path d="M9.83622 3.62396e-05C4.41255 3.62396e-05 3.05176e-05 4.41271 3.05176e-05 9.83623C3.05176e-05 15.2602 4.41255 19.6729 9.83622 19.6729C11.5419 19.6729 13.2161 19.2197 14.6776 18.362C16.1221 17.5139 17.3771 16.2615 18.3058 14.7401L18.4355 14.5277L15.5403 12.8276L15.4178 13.0431C14.1645 15.2453 12.0778 16.5603 9.83622 16.5603C8.29585 16.5603 6.85993 16.0048 5.68305 14.9537C4.65305 14.0337 3.90893 12.7992 3.5668 11.4512H19.583L19.5942 11.2184C19.6135 10.8091 19.6333 10.5334 19.6474 10.3318C19.6627 10.1212 19.6724 9.98184 19.6724 9.83623C19.6724 4.41271 15.2599 3.62396e-05 9.83622 3.62396e-05ZM3.56617 8.26066C3.90689 6.89638 4.65195 5.6496 5.68352 4.72358C6.85805 3.66986 8.29381 3.11267 9.83622 3.11267C11.3117 3.11267 12.7596 3.66986 13.9126 4.68164C14.9746 5.61268 15.7334 6.87502 16.0697 8.26066H3.56617Z" fill="#F1F1F1"/>
<path d="M38.1875 24.1575L32.4022 38.62L26.6174 24.1575H22.7531L30.4152 42.1155L30.479 42.2643H34.3258L42.0514 24.1575H38.1875Z" fill="#F1F1F1"/>
<path d="M15.5076 30.1343L15.5272 30.1695L15.5899 30.1343H15.5076Z" fill="#F1F1F1"/>
<path d="M15.4066 36.3701C14.7831 37.4655 13.9817 38.3218 13.0241 38.9162C12.0684 39.5085 11.0051 39.8089 9.86463 39.8089C6.40153 39.8089 3.68852 36.8899 3.68852 33.1637C3.68852 29.4369 6.40153 26.5181 9.86463 26.5181C10.1807 26.5181 10.4909 26.5423 10.7943 26.5881V23.3693C10.4991 23.3417 10.2017 23.3271 9.90343 23.3271C4.47975 23.3271 0.0670776 27.7396 0.0670776 33.1637C0.0670776 38.5872 4.47975 42.9999 9.90343 42.9999C11.6091 42.9999 13.2836 42.5467 14.7448 41.689C16.1898 40.8413 17.4441 39.5888 18.373 38.0671L18.5043 37.8519L15.5275 36.1575L15.4066 36.3701Z" fill="#F1F1F1"/>
<path d="M15.3976 30.5681C17.1196 30.5681 18.5159 29.1721 18.5159 27.4498C18.5159 25.728 17.1196 24.3315 15.3976 24.3315C13.6757 24.3315 12.2793 25.728 12.2793 27.4498C12.2793 29.1721 13.6757 30.5681 15.3976 30.5681Z" fill="#F1F1F1"/>
<path d="M38.0487 13.6042C38.1258 13.171 38.4849 12.8408 38.9182 12.8408C39.3509 12.8408 39.7103 13.171 39.7842 13.6042H38.0487ZM40.1819 13.7709C40.1819 13.0718 39.6139 12.5038 38.915 12.5038C38.2157 12.5038 37.6476 13.0718 37.6476 13.7709C37.6476 14.4702 38.2157 15.0382 38.915 15.0382C39.4442 15.0382 39.8963 14.7142 40.0856 14.2553L39.749 14.1139C39.6175 14.4539 39.2868 14.7011 38.9182 14.7011C38.4849 14.7011 38.1258 14.3741 38.0518 13.9408H40.169C40.1788 13.8863 40.1819 13.8285 40.1819 13.7709ZM37.5132 14.637H36.6949V12.5682H36.3101V14.9737H37.5132V14.637ZM35.9254 14.637H35.1077V12.5682H34.7223V14.9737H35.9254V14.637ZM32.1725 13.6042C32.2491 13.171 32.6084 12.8408 33.0416 12.8408C33.4748 12.8408 33.8339 13.171 33.9078 13.6042H32.1725ZM34.3054 13.7709C34.3054 13.0718 33.7376 12.5038 33.0383 12.5038C32.3391 12.5038 31.7714 13.0718 31.7714 13.7709C31.7714 14.4702 32.3391 15.0382 33.0383 15.0382C33.5677 15.0382 34.0198 14.7142 34.2092 14.2553L33.8721 14.1139C33.7409 14.4539 33.4106 14.7011 33.0416 14.7011C32.6084 14.7011 32.2491 14.3741 32.1753 13.9408H34.2925C34.3022 13.8863 34.3054 13.8285 34.3054 13.7709ZM31.3545 12.5682H30.9692V13.8382C30.9692 14.3161 30.6036 14.7043 30.1516 14.7043C29.699 14.7043 29.3335 14.3161 29.3335 13.8382V12.5682H28.9488V13.8382C28.9488 14.5021 29.4874 15.0409 30.1516 15.0409C30.8154 15.0409 31.3545 14.5021 31.3545 13.8382V12.5682ZM28.5989 14.326C28.5989 13.2899 26.7224 13.8382 26.7224 13.2193C26.7224 12.9851 27.0143 12.8246 27.3576 12.8246C27.6817 12.8246 28.0535 12.9688 28.2588 13.3282L28.5474 13.1486C28.2844 12.6931 27.8003 12.4942 27.3545 12.4942C26.8345 12.4942 26.3663 12.7636 26.3663 13.2193C26.3663 14.249 28.243 13.6876 28.243 14.326C28.243 14.5599 27.9316 14.7206 27.556 14.7206C27.194 14.7206 26.7675 14.5665 26.5075 14.1493L26.2219 14.329C26.5366 14.8392 27.0783 15.0476 27.5692 15.0476C28.1179 15.0476 28.5989 14.7815 28.5989 14.326ZM25.9011 12.5682H25.5163V14.974H25.9011V12.5682ZM24.8524 12.5682L24.057 14.2006L23.261 12.5682H22.8537L24.057 15.0187L25.2596 12.5682H24.8524Z" fill="#F1F1F1"/>
<path d="M42.0988 8.66709H41.7139V10.332L39.693 8.62201V11.0728H40.0777V9.40791L42.0988 11.1176V8.66709ZM38.8942 9.87005C38.8942 10.3831 38.4998 10.8003 38.012 10.8003C37.5243 10.8003 37.13 10.3831 37.13 9.87005C37.13 9.35701 37.5243 8.94011 38.012 8.94011C38.4998 8.94011 38.8942 9.35701 38.8942 9.87005ZM39.2759 9.87005C39.2759 9.17071 38.7079 8.603 38.0089 8.603C37.3096 8.603 36.7415 9.17071 36.7415 9.87005C36.7415 10.5692 37.3096 11.1369 38.0089 11.1369C38.7079 11.1369 39.2759 10.5692 39.2759 9.87005ZM36.3249 8.66709H35.9401V11.0728H36.3249V8.66709ZM35.5554 8.66709H33.1493V9.00373H34.1597V11.0728H34.5447V9.00373H35.5554V8.66709ZM31.8243 10.2807L32.2348 9.43995L32.6459 10.2807H31.8243ZM32.2348 8.62201L31.032 11.0728H31.4398L31.6609 10.6176H32.8092L33.0304 11.0728H33.4377L32.2348 8.62201ZM30.0312 7.90052L29.1394 8.20542L29.2487 8.49069L30.1402 8.1861L30.0312 7.90052ZM28.7835 9.70307C28.8606 9.2703 29.2198 8.94011 29.6524 8.94011C30.0857 8.94011 30.4449 9.2703 30.5189 9.70307H28.7835ZM30.9165 9.87005C30.9165 9.17071 30.3488 8.603 29.6495 8.603C28.95 8.603 28.3824 9.17071 28.3824 9.87005C28.3824 10.5692 28.95 11.1369 29.6495 11.1369C30.1787 11.1369 30.6312 10.813 30.8204 10.3545L30.4836 10.2133C30.3519 10.5537 30.0216 10.8003 29.6524 10.8003C29.2198 10.8003 28.8606 10.4728 28.7868 10.0402H30.9036C30.9132 9.98566 30.9165 9.9277 30.9165 9.87005ZM27.6446 9.35371C27.6446 9.54598 27.5098 9.70307 27.3431 9.70307H26.0087V9.00373H27.3431C27.5098 9.00373 27.6446 9.16128 27.6446 9.35371ZM27.119 10.0402H27.3431C27.7219 10.0402 28.0294 9.73197 28.0294 9.35371C28.0294 8.97529 27.7219 8.66709 27.3431 8.66709H25.624V11.0728H26.0087V10.0402H26.6312L27.5453 11.0728H28.0294L27.119 10.0402ZM24.9022 10.2133C24.7707 10.5537 24.4402 10.8003 24.0714 10.8003C23.5836 10.8003 23.189 10.3831 23.189 9.87005C23.189 9.35701 23.5836 8.94011 24.0714 8.94011C24.4402 8.94011 24.7707 9.18689 24.9022 9.52336L25.2388 9.38591C25.0497 8.92691 24.5976 8.603 24.0682 8.603C23.3689 8.603 22.8009 9.17071 22.8009 9.87005C22.8009 10.5692 23.3689 11.1369 24.0682 11.1369C24.5976 11.1369 25.0497 10.813 25.2388 10.3545L24.9022 10.2133Z" fill="#F1F1F1"/>
<path d="M39.5197 5.80252C39.5969 5.36928 39.9557 5.03909 40.3889 5.03909C40.822 5.03909 41.1811 5.36928 41.2552 5.80252H39.5197ZM41.6526 5.9695C41.6526 5.27016 41.0849 4.70245 40.3857 4.70245C39.6867 4.70245 39.1187 5.27016 39.1187 5.9695C39.1187 6.66853 39.6867 7.23655 40.3857 7.23655C40.9148 7.23655 41.3674 6.91248 41.5567 6.45364L41.2199 6.31226C41.0882 6.65266 40.7579 6.89944 40.3889 6.89944C39.9557 6.89944 39.5969 6.57271 39.5229 6.13915H41.6401C41.6495 6.08496 41.6526 6.02715 41.6526 5.9695ZM38.3809 5.9695C38.3809 6.44735 38.0153 6.83535 37.5628 6.83535H36.7451V5.10318H37.5628C38.0153 5.10318 38.3809 5.49165 38.3809 5.9695ZM38.7657 5.9695C38.7657 5.30535 38.2269 4.76655 37.5628 4.76655H36.36V7.17199H37.5628C38.2269 7.17199 38.7657 6.63334 38.7657 5.9695ZM33.1364 5.80252C33.2131 5.36928 33.5728 5.03909 34.0054 5.03909C34.4385 5.03909 34.7979 5.36928 34.8717 5.80252H33.1364ZM35.2693 5.9695C35.2693 5.27016 34.7016 4.70245 34.0023 4.70245C33.3029 4.70245 32.7352 5.27016 32.7352 5.9695C32.7352 6.66853 33.3029 7.23655 34.0023 7.23655C34.5317 7.23655 34.9842 6.91248 35.1732 6.45364L34.8366 6.31226C34.7048 6.65266 34.3746 6.89944 34.0054 6.89944C33.5728 6.89944 33.2131 6.57271 33.1396 6.13915H35.2568C35.2662 6.08496 35.2693 6.02715 35.2693 5.9695ZM32.6005 6.83535H31.7824V4.76655H31.398V7.17199H32.6005V6.83535ZM30.5989 5.9695C30.5989 6.48254 30.2044 6.89944 29.7167 6.89944C29.2293 6.89944 28.8347 6.48254 28.8347 5.9695C28.8347 5.45599 29.2293 5.03909 29.7167 5.03909C30.2044 5.03909 30.5989 5.45599 30.5989 5.9695ZM30.9806 5.9695C30.9806 5.27016 30.4131 4.70245 29.714 4.70245C29.0142 4.70245 28.4465 5.27016 28.4465 5.9695C28.4465 6.66853 29.0142 7.23655 29.714 7.23655C30.4131 7.23655 30.9806 6.66853 30.9806 5.9695ZM27.7891 6.31226C27.6573 6.65266 27.3271 6.89944 26.9583 6.89944C26.4705 6.89944 26.0762 6.48254 26.0762 5.9695C26.0762 5.45599 26.4705 5.03909 26.9583 5.03909C27.3271 5.03909 27.6573 5.28603 27.7891 5.62297L28.1262 5.48489C27.9368 5.02652 27.4842 4.70245 26.9548 4.70245C26.2558 4.70245 25.6882 5.27016 25.6882 5.9695C25.6882 6.66853 26.2558 7.23655 26.9548 7.23655C27.4842 7.23655 27.9368 6.91248 28.1262 6.45364L27.7891 6.31226ZM24.4498 3.99997L23.558 4.3044L23.6669 4.58998L24.559 4.28555L24.4498 3.99997ZM23.2021 5.80252C23.2789 5.36928 23.6383 5.03909 24.0712 5.03909C24.5043 5.03909 24.8634 5.36928 24.9375 5.80252H23.2021ZM25.335 5.9695C25.335 5.27016 24.7673 4.70245 24.0684 4.70245C23.3687 4.70245 22.801 5.27016 22.801 5.9695C22.801 6.66853 23.3687 7.23655 24.0684 7.23655C24.5976 7.23655 25.0497 6.91248 25.239 6.45364L24.9024 6.31226C24.7706 6.65266 24.4404 6.89944 24.0712 6.89944C23.6383 6.89944 23.2789 6.57271 23.2052 6.13915H25.3224C25.3318 6.08496 25.335 6.02715 25.335 5.9695Z" fill="#F1F1F1"/>
</g>
</svg>

<svg xmlns="http://www.w3.org/2000/svg" width="43" height="43" fill="none" viewBox="0 0 43 43"><mask id="a" width="43" height="43" x="0" y="0" maskUnits="userSpaceOnUse" style="mask-type:luminance"><path fill="#fff" d="M0 43h42.099V0H0z"/></mask><g fill="#f1f1f1" mask="url(#a)"><path d="M9.836 0C4.413 0 0 4.413 0 9.836c0 5.424 4.413 9.837 9.836 9.837 1.706 0 3.38-.453 4.842-1.311 1.444-.848 2.7-2.1 3.628-3.622l.13-.212-2.896-1.7-.122.215c-1.253 2.202-3.34 3.517-5.582 3.517-1.54 0-2.976-.555-4.153-1.606a7.04 7.04 0 0 1-2.116-3.503h16.016l.011-.233c.02-.409.04-.685.053-.886.016-.21.025-.35.025-.496C19.672 4.413 15.26 0 9.836 0m-6.27 8.26a7.1 7.1 0 0 1 2.118-3.536c1.174-1.054 2.61-1.611 4.152-1.611 1.476 0 2.924.557 4.077 1.569A6.96 6.96 0 0 1 16.07 8.26zM38.188 24.158 32.402 38.62l-5.785-14.462h-3.864l7.662 17.957.064.15h3.847l7.725-18.107zM15.508 30.134l.02.035.062-.035zM15.407 36.37c-.624 1.096-1.425 1.952-2.383 2.546a5.9 5.9 0 0 1-3.16.893c-3.462 0-6.175-2.92-6.175-6.645 0-3.727 2.713-6.646 6.176-6.646q.474 0 .93.07V23.37a10 10 0 0 0-.892-.042c-5.423 0-9.836 4.413-9.836 9.837S4.48 43 9.903 43a9.57 9.57 0 0 0 4.842-1.311c1.445-.848 2.7-2.1 3.628-3.622l.131-.215-2.977-1.694z"/><path d="M15.398 30.568a3.118 3.118 0 1 0 0-6.237 3.118 3.118 0 0 0 0 6.237M38.049 13.604c.077-.433.436-.763.87-.763.432 0 .791.33.865.763zm2.133.167a1.268 1.268 0 1 0-.096.484l-.337-.141a.91.91 0 0 1-.83.587c-.434 0-.793-.327-.867-.76h2.117a1 1 0 0 0 .013-.17m-2.669.866h-.818v-2.069h-.385v2.406h1.203zm-1.588 0h-.817v-2.069h-.386v2.406h1.203zm-3.752-1.033c.076-.433.435-.763.869-.763.433 0 .792.33.866.763zm2.132.167a1.268 1.268 0 1 0-.096.484l-.337-.141a.91.91 0 0 1-.83.587c-.434 0-.793-.327-.867-.76h2.117a1 1 0 0 0 .013-.17m-2.95-1.203h-.386v1.27c0 .478-.365.866-.817.866-.453 0-.819-.388-.819-.866v-1.27h-.384v1.27a1.203 1.203 0 0 0 2.406 0zm-2.756 1.758c0-1.036-1.877-.488-1.877-1.107 0-.234.292-.394.636-.394.324 0 .695.144.9.503l.29-.18c-.264-.455-.748-.654-1.193-.654-.52 0-.989.27-.989.725 0 1.03 1.877.469 1.877 1.107 0 .234-.311.395-.687.395-.362 0-.789-.155-1.049-.572l-.285.18c.315.51.856.719 1.347.719.549 0 1.03-.267 1.03-.722M25.9 12.568h-.385v2.406h.385zm-1.049 0-.795 1.633-.796-1.633h-.407l1.203 2.45 1.203-2.45zM42.099 8.667h-.385v1.665l-2.021-1.71v2.45h.385V9.409l2.02 1.71zM38.894 9.87c0 .513-.394.93-.882.93s-.882-.417-.882-.93.394-.93.882-.93.882.417.882.93m.382 0a1.268 1.268 0 1 0-2.536.002 1.268 1.268 0 0 0 2.536-.002m-2.951-1.203h-.385v2.406h.385zm-.77 0H33.15v.337h1.01v2.069h.386v-2.07h1.01zm-3.73 1.614.41-.841.41.84zm.41-1.659-1.203 2.45h.408l.22-.454h1.15l.22.455h.408zm-2.204-.721-.892.304.11.286.891-.305zm-1.247 1.802c.077-.433.436-.763.868-.763.434 0 .793.33.867.763zm2.133.167a1.268 1.268 0 1 0-.097.485l-.336-.142a.91.91 0 0 1-.832.587c-.432 0-.791-.327-.865-.76h2.117a1 1 0 0 0 .012-.17m-3.272-.516c0 .192-.135.35-.302.35H26.01v-.7h1.334c.167 0 .302.157.302.35m-.526.686h.224a.687.687 0 0 0 0-1.373h-1.719v2.406h.385V10.04h.622l.914 1.033h.484zm-2.217.173a.91.91 0 0 1-.83.587c-.488 0-.883-.417-.883-.93s.395-.93.882-.93c.37 0 .7.247.831.583l.337-.137a1.268 1.268 0 1 0 0 .969zM39.52 5.803c.077-.434.436-.764.869-.764s.792.33.866.764zm2.133.167a1.268 1.268 0 1 0-.096.484l-.337-.142a.91.91 0 0 1-.831.587c-.433 0-.792-.326-.866-.76h2.117q.014-.082.013-.17m-3.272 0c0 .477-.366.865-.818.865h-.818V5.103h.818c.452 0 .818.389.818.867m.385 0c0-.665-.54-1.203-1.203-1.203H36.36v2.405h1.203c.664 0 1.203-.539 1.203-1.202m-5.63-.167c.077-.434.437-.764.87-.764.432 0 .792.33.866.764zm2.133.167a1.268 1.268 0 1 0-.096.484l-.336-.142a.91.91 0 0 1-.832.587c-.432 0-.792-.326-.865-.76h2.117q.014-.082.012-.17m-2.669.865h-.818V4.767h-.384v2.405H32.6zM30.6 5.97c0 .513-.395.93-.882.93-.488 0-.882-.417-.882-.93s.394-.93.882-.93c.487 0 .882.416.882.93m.382 0a1.267 1.267 0 1 0-2.535 0 1.267 1.267 0 0 0 2.535 0m-3.192.342a.91.91 0 0 1-.83.587c-.488 0-.883-.416-.883-.93 0-.513.395-.93.882-.93.37 0 .7.247.831.584l.337-.138a1.267 1.267 0 1 0 0 .969zM24.45 4l-.891.304.109.286.892-.304zm-1.247 1.803c.077-.434.436-.764.87-.764.432 0 .791.33.866.764zm2.133.167a1.268 1.268 0 1 0-.096.484l-.337-.142a.91.91 0 0 1-.83.587c-.434 0-.793-.326-.867-.76h2.117q.014-.082.013-.17"/></g></svg>
